X: 2
M:6/8
L:1/8
P: Fairie's Revels. HSJJ.019
S:HSJ Jackson,Wyresdale,Lancs.1823
R:Jig
O:England
A:Lancashire
H:1823
Z:vmp.Chris Partington.
F:http://www.smmp.salford.ac.uk/downloads/vmp/Hsjjack.abc 2004-10-23 17:26:45 UT
K:C
   G | "C"c2c cBc | "F"ABc "(G7)"def | "C"e2c cBc | "G7"B2G GAB | "C"c2c cBc | "F"ABc def | "Dm"Adc "G7"BAB | "C"c3- c2 :|
|: e | "C"g2g gfe | "F"fga       a2c'| "C"gec cBc | "G7"d2G GAB | "C"EGc cBc | "F"Acf fga |  "C"g2c "G7"dcd | "C"e2c c2 :|]
% jig/ChurchOfDromore.abc
